icons/src/scalable/default/devices/ac-adapter-symbolic.svg

<?xml version="1.0" encoding="UTF-8" standalone="no"?>
<svg
   xmlns:dc="http://purl.org/dc/elements/1.1/"
   xmlns:cc="http://creativecommons.org/ns#"
   xmlns:rdf="http://www.w3.org/1999/02/22-rdf-syntax-ns#"
   xmlns:svg="http://www.w3.org/2000/svg"
   xmlns="http://www.w3.org/2000/svg"
   version="1.0"
   width="16"
   height="16"
   id="svg3295">
  <metadata
     id="metadata712">
    <rdf:RDF>
      <cc:Work
         rdf:about="">
        <dc:format>image/svg+xml</dc:format>
        <dc:type
           rdf:resource="http://purl.org/dc/dcmitype/StillImage" />
        <dc:title />
      </cc:Work>
    </rdf:RDF>
  </metadata>
  <defs
     id="defs3297" />
  <path
     style="color:#000000;display:inline;overflow:visible;visibility:visible;fill:#bebebe;fill-opacity:1;fill-rule:nonzero;stroke:none;stroke-width:1;marker:none;enable-background:accumulate"
     d="M 8 1 C 4.1376418 1 1 4.1376416 1 8 C 1 11.862359 4.1376418 15.000001 8 15 C 11.862358 15 15.000002 11.862359 15 8 C 15 4.1376416 11.862358 1 8 1 z M 10 2 L 8.4375 7.3007812 L 11 7 L 6 14 L 7.6992188 8.6992188 L 5 9 L 10 2 z "
     id="path2555-7-65" />
</svg>

<svg version="1.1" viewBox="0 0 16 16" xmlns="http://www.w3.org/2000/svg">
 <path d="m8 1c-3.8624 0-7 3.1376-7 7 0 3.8624 3.1376 7 7 7 3.8624 0 7-3.1376 7-7 0-3.8624-3.1376-7-7-7zm2 1-1.5625 5.3008 2.5625-0.30078-5 7 1.6992-5.3008-2.6992 0.30078 5-7z" color="#000000" fill="#bebebe"/>
</svg>
